!!!OTL: Witay Jesu przenaslodszy
**kern
*staff1
=--
*clefC1
*k[]
0f
1g
1a
=-
1b
1cc
1dd
1cc
=-
0b
1b
1a
=-
1b
0g
1cc
=-
1b
0a
1g
!!linebreak:original
=-
1.a
4g
4f
1e
1c
=-
1d
1e
1f
0a
1g
=-
0a
0a
=-
1e
1d
1c
1g
=-
1f
0e
1d
=-
0e
=-
!!linebreak:original
0b
=-
0cc
0b
=-
1g
0a
1g
=-
1e
1f
1.e
2f
=-
0g
0g
!!linebreak:original
=-
1f
1g
1f
1d
=-
0e
1d
0e
=-
1.g
2a
1b
1cc
=-
1b
0a
1g
=-
0a
=-=
*-
!!title: @{OTL}, @{GTL}, ed. @{ENC}
!!!pag:
!!!GTL: Hymnbook C
!!!EFL: 
!!!YEM: Creative Commons CC/BY/NC/SA 4.0
!!!ENC: Marcin Konik
!!!END: 2015-0m-dd
!!!EED: Marcin Konik
!!!EEV: 
!!!ONB: Encoded in vim by Marcin Konik
!!!CharacterEncoding: utf-8
!!!RDF**kern: l=long note in original notation
!!!RDF**kern: i=editorial accidental
!!muse2ps: z14jc180F
!!!COM: Anonim
!!!CDT: [?]
!!!TXO: Polish
!!!ODT: 
!!!GTL: Hymnbook C
!!!ARL: Opactwo św. Wojciecha, Staniątki 
!!!voices:	1
